austria/municipalities/70218.svg

<?xml version="1.0" encoding="UTF-8"?>
<!DOCTYPE svg PUBLIC "-//W3C//DTD SVG 1.1//EN" "http://www.w3.org/Graphics/SVG/1.1/DTD/svg11.dtd">
<svg xmlns="http://www.w3.org/2000/svg" version="1.1" width="166px" height="192px" style="shape-rendering:geometricPrecision; text-rendering:geometricPrecision; image-rendering:optimizeQuality; fill-rule:evenodd; clip-rule:evenodd" xmlns:xlink="http://www.w3.org/1999/xlink">
<g><path style="opacity:1" fill="#080805" d="M -0.5,-0.5 C 54.8333,-0.5 110.167,-0.5 165.5,-0.5C 165.5,39.5 165.5,79.5 165.5,119.5C 157.038,159.629 132.705,183.629 92.5,191.5C 85.5,191.5 78.5,191.5 71.5,191.5C 30.9191,182.92 6.91912,158.253 -0.5,117.5C -0.5,78.1667 -0.5,38.8333 -0.5,-0.5 Z"/></g>
<g><path style="opacity:1" fill="#392e17" d="M 3.5,3.5 C 29.4979,2.83336 55.6645,2.50002 82,2.5C 108.509,2.50019 134.675,3.16686 160.5,4.5C 159.811,7.18943 158.144,8.8561 155.5,9.5C 157.002,7.82504 158.335,5.9917 159.5,4C 107.501,3.50001 55.5011,3.33334 3.5,3.5 Z"/></g>
<g><path style="opacity:1" fill="#e6a51c" d="M 3.5,3.5 C 55.5011,3.33334 107.501,3.50001 159.5,4C 158.335,5.9917 157.002,7.82504 155.5,9.5C 150.127,13.8714 145.461,18.8714 141.5,24.5C 137.434,27.5628 134.101,31.2294 131.5,35.5C 130.167,36.1667 129.167,37.1667 128.5,38.5C 123.127,42.8714 118.461,47.8714 114.5,53.5C 109.127,57.8714 104.461,62.8714 100.5,68.5C 96.4342,71.5628 93.1009,75.2294 90.5,79.5C 89.1667,80.1667 88.1667,81.1667 87.5,82.5C 82.1275,86.8714 77.4608,91.8714 73.5,97.5C 68.1275,101.871 63.4608,106.871 59.5,112.5C 55.4342,115.563 52.1009,119.229 49.5,123.5C 48.1667,124.167 47.1667,125.167 46.5,126.5C 41.1275,130.871 36.4608,135.871 32.5,141.5C 27.46,145.539 23.1266,150.206 19.5,155.5C 10.5464,144.165 5.37974,131.165 4,116.5C 3.50001,78.8348 3.33335,41.1681 3.5,3.5 Z"/></g>
<g><path style="opacity:1" fill="#185b2a" d="M 160.5,4.5 C 161.664,42.3311 161.831,80.3311 161,118.5C 154.044,157.789 130.878,180.622 91.5,187C 61.5369,189.747 37.5369,179.247 19.5,155.5C 21.0174,155.489 22.1841,154.823 23,153.5C 26.4044,149.606 29.5711,145.606 32.5,141.5C 34.0174,141.489 35.1841,140.823 36,139.5C 39.7365,135.273 43.2365,130.94 46.5,126.5C 47.1667,125.167 48.1667,124.167 49.5,123.5C 53.5658,120.437 56.8991,116.771 59.5,112.5C 61.371,112.141 62.871,111.141 64,109.5C 67.4044,105.606 70.5711,101.606 73.5,97.5C 75.0174,97.4894 76.1841,96.8228 77,95.5C 80.7365,91.2733 84.2365,86.94 87.5,82.5C 88.1667,81.1667 89.1667,80.1667 90.5,79.5C 94.5658,76.4372 97.8991,72.7706 100.5,68.5C 102.371,68.1412 103.871,67.1412 105,65.5C 108.404,61.6061 111.571,57.6061 114.5,53.5C 116.017,53.4894 117.184,52.8228 118,51.5C 121.737,47.2733 125.237,42.94 128.5,38.5C 129.167,37.1667 130.167,36.1667 131.5,35.5C 135.566,32.4372 138.899,28.7706 141.5,24.5C 143.371,24.1412 144.871,23.1412 146,21.5C 149.404,17.6061 152.571,13.6061 155.5,9.5C 158.144,8.8561 159.811,7.18943 160.5,4.5 Z"/></g>
<g><path style="opacity:1" fill="#0d0a05" d="M 36.5,79.5 C 35.8365,77.9581 35.1698,76.2914 34.5,74.5C 33.5481,76.0453 33.2148,77.712 33.5,79.5C 31.4943,89.8864 30.3277,89.8864 30,79.5C 30.1158,84.6299 28.7824,89.2966 26,93.5C 26.0726,81.6544 25.406,81.6544 24,93.5C 23,95.5 22,97.5 21,99.5C 20.6667,98.1667 20.3333,96.8333 20,95.5C 19.0193,99.4641 17.0193,102.797 14,105.5C 14.7557,89.2253 20.9223,75.392 32.5,64C 37.0335,61.9964 40.8669,59.1631 44,55.5C 45.1574,49.6491 42.9907,45.4824 37.5,43C 38.7932,42.51 40.1266,42.3433 41.5,42.5C 41.822,40.2776 41.1554,38.4443 39.5,37C 39.8333,36.8333 40.1667,36.6667 40.5,36.5C 43.2198,38.1107 46.2198,38.944 49.5,39C 51.0738,40.8259 51.9071,42.9925 52,45.5C 53.0495,46.5171 54.2161,46.6838 55.5,46C 61.7799,33.3867 71.1133,23.72 83.5,17C 88.801,15.8752 93.9676,14.3752 99,12.5C 97.6014,15.5439 95.1014,17.7106 91.5,19C 93.8912,19.6914 93.8912,20.6914 91.5,22C 88.6179,23.6079 85.6179,24.9413 82.5,26C 90.0704,25.2219 90.0704,26.5552 82.5,30C 84.8912,30.6914 84.8912,31.6914 82.5,33C 79.1667,34 75.8333,35 72.5,36C 74.1667,36.3333 75.8333,36.6667 77.5,37C 74.962,38.6305 72.2954,39.9639 69.5,41C 71.4242,41.1792 73.0909,41.3459 74.5,41.5C 72.2052,43.4799 69.5385,44.6466 66.5,45C 67.5,45.3333 68.5,45.6667 69.5,46C 65.5547,47.1083 63.2214,49.6083 62.5,53.5C 62.9597,62.9445 67.6264,69.1112 76.5,72C 81.4366,73.0855 86.4366,73.7521 91.5,74C 89.0477,75.9589 86.2143,76.7923 83,76.5C 78.7595,76.0563 74.5928,75.5563 70.5,75C 73.0516,82.5288 73.0516,90.0288 70.5,97.5C 71.4933,84.994 67.1599,74.8273 57.5,67C 54.7025,65.0863 51.7025,64.0863 48.5,64C 46.9186,65.828 45.5853,67.828 44.5,70C 43.2559,70.4561 42.4226,69.9561 42,68.5C 40.9562,70.7148 40.2895,73.0481 40,75.5C 38.883,74.0506 38.2163,72.3839 38,70.5C 37.7411,73.5867 37.2411,76.5867 36.5,79.5 Z"/></g>
<g><path style="opacity:1" fill="#1b2113" d="M 155.5,9.5 C 152.571,13.6061 149.404,17.6061 146,21.5C 144.871,23.1412 143.371,24.1412 141.5,24.5C 145.461,18.8714 150.127,13.8714 155.5,9.5 Z"/></g>
<g><path style="opacity:1" fill="#181a0f" d="M 141.5,24.5 C 138.899,28.7706 135.566,32.4372 131.5,35.5C 134.101,31.2294 137.434,27.5628 141.5,24.5 Z"/></g>
<g><path style="opacity:1" fill="#dfdedd" d="M 44.5,41.5 C 45.5,41.5 46.5,41.5 47.5,41.5C 47.5,42.5 47.5,43.5 47.5,44.5C 46.5,44.5 45.5,44.5 44.5,44.5C 44.5,43.5 44.5,42.5 44.5,41.5 Z"/></g>
<g><path style="opacity:1" fill="#1b2113" d="M 128.5,38.5 C 125.237,42.94 121.737,47.2733 118,51.5C 117.184,52.8228 116.017,53.4894 114.5,53.5C 118.461,47.8714 123.127,42.8714 128.5,38.5 Z"/></g>
<g><path style="opacity:1" fill="#1b2113" d="M 114.5,53.5 C 111.571,57.6061 108.404,61.6061 105,65.5C 103.871,67.1412 102.371,68.1412 100.5,68.5C 104.461,62.8714 109.127,57.8714 114.5,53.5 Z"/></g>
<g><path style="opacity:1" fill="#181a0f" d="M 100.5,68.5 C 97.8991,72.7706 94.5658,76.4372 90.5,79.5C 93.1009,75.2294 96.4342,71.5628 100.5,68.5 Z"/></g>
<g><path style="opacity:1" fill="#5e471e" d="M 36.5,79.5 C 35.4722,82.0983 34.4722,82.0983 33.5,79.5C 33.2148,77.712 33.5481,76.0453 34.5,74.5C 35.1698,76.2914 35.8365,77.9581 36.5,79.5 Z"/></g>
<g><path style="opacity:1" fill="#12130a" d="M 134.5,56.5 C 137.439,59.4577 140.105,62.791 142.5,66.5C 149.043,70.0424 153.376,75.3757 155.5,82.5C 153.696,89.9012 149.029,93.0679 141.5,92C 140.069,91.5348 138.903,90.7014 138,89.5C 138.456,95.7848 138.956,102.118 139.5,108.5C 136.428,108.817 133.428,108.484 130.5,107.5C 132.064,101.927 132.564,96.2599 132,90.5C 123.643,93.9056 118.143,91.2389 115.5,82.5C 116.036,80.0583 116.869,77.7249 118,75.5C 122.333,71.5 126.667,67.5 131,63.5C 132.18,61.1401 133.347,58.8068 134.5,56.5 Z"/></g>
<g><path style="opacity:1" fill="#e5a41c" d="M 136.5,84.5 C 135.833,85.5 135.167,86.5 134.5,87.5C 135.036,84.3354 134.203,81.6688 132,79.5C 133.83,88.6727 130.33,91.8393 121.5,89C 117.423,85.8615 116.59,82.0281 119,77.5C 125.074,72.3819 130.574,66.7152 135.5,60.5C 140.147,66.9803 145.647,72.647 152,77.5C 154.696,84.7707 152.196,89.104 144.5,90.5C 142.519,90.5629 140.852,89.8962 139.5,88.5C 138.459,85.4887 138.292,82.4887 139,79.5C 137.117,80.6526 136.284,82.3193 136.5,84.5 Z"/></g>
<g><path style="opacity:1" fill="#8b6722" d="M 136.5,84.5 C 136.5,87.1667 136.5,89.8333 136.5,92.5C 135.833,91.1667 135.167,89.8333 134.5,88.5C 134.5,88.1667 134.5,87.8333 134.5,87.5C 135.167,86.5 135.833,85.5 136.5,84.5 Z"/></g>
<g><path style="opacity:1" fill="#e0a01d" d="M 134.5,88.5 C 135.167,89.8333 135.833,91.1667 136.5,92.5C 136.646,96.5191 136.979,100.519 137.5,104.5C 136.817,106.176 135.483,106.843 133.5,106.5C 133.5,105.5 133.5,104.5 133.5,103.5C 134.053,98.518 134.387,93.518 134.5,88.5 Z"/></g>
<g><path style="opacity:1" fill="#1b2113" d="M 87.5,82.5 C 84.2365,86.94 80.7365,91.2733 77,95.5C 76.1841,96.8228 75.0174,97.4894 73.5,97.5C 77.4608,91.8714 82.1275,86.8714 87.5,82.5 Z"/></g>
<g><path style="opacity:1" fill="#1b2113" d="M 73.5,97.5 C 70.5711,101.606 67.4044,105.606 64,109.5C 62.871,111.141 61.371,112.141 59.5,112.5C 63.4608,106.871 68.1275,101.871 73.5,97.5 Z"/></g>
<g><path style="opacity:1" fill="#765821" d="M 133.5,103.5 C 133.5,104.5 133.5,105.5 133.5,106.5C 135.483,106.843 136.817,106.176 137.5,104.5C 138.404,105.209 138.737,106.209 138.5,107.5C 136.5,107.5 134.5,107.5 132.5,107.5C 132.232,105.901 132.566,104.568 133.5,103.5 Z"/></g>
<g><path style="opacity:1" fill="#13130b" d="M 100.5,91.5 C 102.86,93.7126 104.694,96.3793 106,99.5C 110.634,103.132 114.967,107.132 119,111.5C 122.562,122.936 118.396,128.102 106.5,127C 105.584,126.626 104.75,126.126 104,125.5C 104.411,131.8 104.911,138.133 105.5,144.5C 102.552,144.777 99.7191,144.444 97,143.5C 97.9817,137.581 98.315,131.581 98,125.5C 89.3918,129.899 83.8918,127.399 81.5,118C 81.8907,114.823 83.0573,111.99 85,109.5C 88.3333,106.833 91.6667,104.167 95,101.5C 97.1118,98.2729 98.9451,94.9396 100.5,91.5 Z"/></g>
<g><path style="opacity:1" fill="#e2a21d" d="M 100.5,95.5 C 102.969,98.1438 105.302,100.977 107.5,104C 113.67,106.834 117.67,111.501 119.5,118C 116.757,125.97 111.924,127.803 105,123.5C 103.171,121.107 103.337,118.773 105.5,116.5C 104.726,115.289 103.893,115.289 103,116.5C 102.042,119.075 101.542,121.741 101.5,124.5C 102.168,130.508 102.834,136.508 103.5,142.5C 101.833,142.5 100.167,142.5 98.5,142.5C 100.138,134.239 100.638,125.906 100,117.5C 97.4569,114.801 96.7903,114.801 98,117.5C 98.5253,125.349 95.0253,127.849 87.5,125C 83.3378,121.522 82.5044,117.356 85,112.5C 89.3333,108.5 93.6667,104.5 98,100.5C 98.8466,98.8068 99.6799,97.1401 100.5,95.5 Z"/></g>
<g><path style="opacity:1" fill="#181a0f" d="M 59.5,112.5 C 56.8991,116.771 53.5658,120.437 49.5,123.5C 52.1009,119.229 55.4342,115.563 59.5,112.5 Z"/></g>
<g><path style="opacity:1" fill="#fdfdfd" d="M -0.5,117.5 C 6.91912,158.253 30.9191,182.92 71.5,191.5C 47.5,191.5 23.5,191.5 -0.5,191.5C -0.5,166.833 -0.5,142.167 -0.5,117.5 Z"/></g>
<g><path style="opacity:1" fill="#fdfdfd" d="M 165.5,119.5 C 165.5,143.5 165.5,167.5 165.5,191.5C 141.167,191.5 116.833,191.5 92.5,191.5C 132.705,183.629 157.038,159.629 165.5,119.5 Z"/></g>
<g><path style="opacity:1" fill="#1b2113" d="M 46.5,126.5 C 43.2365,130.94 39.7365,135.273 36,139.5C 35.1841,140.823 34.0174,141.489 32.5,141.5C 36.4608,135.871 41.1275,130.871 46.5,126.5 Z"/></g>
<g><path style="opacity:1" fill="#1b2113" d="M 32.5,141.5 C 29.5711,145.606 26.4044,149.606 23,153.5C 22.1841,154.823 21.0174,155.489 19.5,155.5C 23.1266,150.206 27.46,145.539 32.5,141.5 Z"/></g>
<g><path style="opacity:1" fill="#14130a" d="M 66.5,127.5 C 69.1131,130.011 71.2798,133.011 73,136.5C 76.3333,139.167 79.6667,141.833 83,144.5C 89.3499,154.098 87.0166,160.431 76,163.5C 73.5941,163.297 71.5941,162.297 70,160.5C 70.0832,166.841 70.5832,173.175 71.5,179.5C 68.5,179.5 65.5,179.5 62.5,179.5C 63.7094,173.208 64.2094,166.874 64,160.5C 55.3256,165.377 49.8256,162.877 47.5,153C 47.9095,150.679 48.7428,148.513 50,146.5C 53.7002,142.465 57.7002,138.798 62,135.5C 63.7653,132.968 65.2653,130.301 66.5,127.5 Z"/></g>
<g><path style="opacity:1" fill="#e3a21c" d="M 66.5,130.5 C 71.0977,136.933 76.5977,142.599 83,147.5C 86.6683,155.088 84.5017,159.754 76.5,161.5C 70.0164,160.533 68.3497,157.2 71.5,151.5C 70.7261,150.289 69.8928,150.289 69,151.5C 68.0069,154.408 67.5069,157.408 67.5,160.5C 68.1682,166.507 68.8348,172.507 69.5,178.5C 67.8333,178.5 66.1667,178.5 64.5,178.5C 65.4213,172.375 66.0879,166.208 66.5,160C 66.5571,157.04 66.0571,154.207 65,151.5C 64.1072,150.289 63.2739,150.289 62.5,151.5C 65.6783,157.144 64.0116,160.477 57.5,161.5C 49.1899,159.115 47.3566,154.115 52,146.5C 58.1147,142.224 62.9481,136.891 66.5,130.5 Z"/></g>
</svg>

<svg xmlns="http://www.w3.org/2000/svg" width="166" height="192" style="shape-rendering:geometricPrecision;text-rendering:geometricPrecision;image-rendering:optimizeQuality;fill-rule:evenodd;clip-rule:evenodd"><path style="opacity:1" fill="#080805" d="M-.5-.5h166v120c-8.462 40.129-32.795 64.129-73 72h-21c-40.58-8.58-64.58-33.247-72-74V-.5z"/><path style="opacity:1" fill="#392e17" d="M3.5 3.5c25.998-.667 52.164-1 78.5-1 26.509 0 52.675.667 78.5 2-.689 2.69-2.356 4.356-5 5a33.684 33.684 0 0 0 4-5.5c-51.999-.5-103.999-.667-156-.5z"/><path style="opacity:1" fill="#e6a51c" d="M3.5 3.5c52.001-.167 104.001 0 156 .5a33.684 33.684 0 0 1-4 5.5 74.602 74.602 0 0 0-14 15c-4.066 3.063-7.399 6.73-10 11a6.544 6.544 0 0 0-3 3 74.602 74.602 0 0 0-14 15 74.602 74.602 0 0 0-14 15c-4.066 3.063-7.4 6.73-10 11a6.541 6.541 0 0 0-3 3 74.61 74.61 0 0 0-14 15 74.59 74.59 0 0 0-14 15c-4.066 3.063-7.4 6.729-10 11a6.544 6.544 0 0 0-3 3 74.59 74.59 0 0 0-14 15 64.738 64.738 0 0 0-13 14c-8.954-11.335-14.12-24.335-15.5-39-.5-37.665-.667-75.332-.5-113z"/><path style="opacity:1" fill="#185b2a" d="M160.5 4.5a2170.244 2170.244 0 0 1 .5 114c-6.956 39.289-30.122 62.122-69.5 68.5-29.963 2.747-53.963-7.753-72-31.5 1.517-.011 2.684-.677 3.5-2a154.892 154.892 0 0 0 9.5-12c1.517-.011 2.684-.677 3.5-2a185.586 185.586 0 0 0 10.5-13 6.544 6.544 0 0 1 3-3c4.066-3.063 7.4-6.729 10-11 1.871-.359 3.371-1.359 4.5-3a154.892 154.892 0 0 0 9.5-12c1.517-.01 2.684-.677 3.5-2a185.516 185.516 0 0 0 10.5-13 6.541 6.541 0 0 1 3-3c4.066-3.063 7.4-6.73 10-11 1.871-.359 3.371-1.359 4.5-3a154.974 154.974 0 0 0 9.5-12c1.517-.01 2.684-.677 3.5-2a185.23 185.23 0 0 0 10.5-13 6.544 6.544 0 0 1 3-3c4.066-3.063 7.399-6.73 10-11 1.871-.359 3.371-1.359 4.5-3a154.974 154.974 0 0 0 9.5-12c2.644-.644 4.311-2.31 5-5z"/><path style="opacity:1" fill="#0d0a05" d="M36.5 79.5a111.25 111.25 0 0 1-2-5c-.952 1.545-1.285 3.212-1 5-2.006 10.386-3.172 10.386-3.5 0 .116 5.13-1.218 9.797-4 14 .073-11.846-.594-11.846-2 0l-3 6-1-4c-.98 3.964-2.98 7.297-6 10 .756-16.275 6.922-30.108 18.5-41.5 4.533-2.004 8.367-4.837 11.5-8.5 1.157-5.85-1.01-10.018-6.5-12.5a8.434 8.434 0 0 1 4-.5c.322-2.222-.345-4.056-2-5.5l1-.5c2.72 1.61 5.72 2.444 9 2.5 1.574 1.826 2.407 3.992 2.5 6.5 1.05 1.017 2.216 1.184 3.5.5 6.28-12.613 15.613-22.28 28-29A109.3 109.3 0 0 0 99 12.5c-1.399 3.044-3.899 5.21-7.5 6.5 2.391.691 2.391 1.691 0 3a54.214 54.214 0 0 1-9 4c7.57-.778 7.57.555 0 4 2.391.691 2.391 1.691 0 3l-10 3 5 1a41.352 41.352 0 0 1-8 4c1.924.18 3.59.346 5 .5-2.295 1.98-4.962 3.147-8 3.5l3 1c-3.945 1.108-6.279 3.608-7 7.5.46 9.444 5.126 15.611 14 18.5a90.28 90.28 0 0 0 15 2c-2.452 1.959-5.286 2.792-8.5 2.5-4.24-.444-8.407-.944-12.5-1.5 2.552 7.529 2.552 15.029 0 22.5.993-12.506-3.34-22.673-13-30.5-2.797-1.914-5.797-2.914-9-3a28.83 28.83 0 0 0-4 6c-1.244.456-2.077-.044-2.5-1.5a22.5 22.5 0 0 0-2 7c-1.117-1.45-1.784-3.116-2-5a55.135 55.135 0 0 1-1.5 9z"/><path style="opacity:1" fill="#1b2113" d="M155.5 9.5a154.974 154.974 0 0 1-9.5 12c-1.129 1.641-2.629 2.641-4.5 3a74.602 74.602 0 0 1 14-15z"/><path style="opacity:1" fill="#181a0f" d="M141.5 24.5c-2.601 4.27-5.934 7.937-10 11 2.601-4.27 5.934-7.937 10-11z"/><path style="opacity:1" fill="#dfdedd" d="M44.5 41.5h3v3h-3v-3z"/><path style="opacity:1" fill="#1b2113" d="M128.5 38.5a185.23 185.23 0 0 1-10.5 13c-.816 1.323-1.983 1.99-3.5 2a74.602 74.602 0 0 1 14-15zM114.5 53.5a154.974 154.974 0 0 1-9.5 12c-1.129 1.641-2.629 2.641-4.5 3a74.602 74.602 0 0 1 14-15z"/><path style="opacity:1" fill="#181a0f" d="M100.5 68.5c-2.6 4.27-5.934 7.937-10 11 2.6-4.27 5.934-7.937 10-11z"/><path style="opacity:1" fill="#5e471e" d="M36.5 79.5c-1.028 2.598-2.028 2.598-3 0-.285-1.788.048-3.455 1-5a111.25 111.25 0 0 0 2 5z"/><path style="opacity:1" fill="#12130a" d="M134.5 56.5c2.939 2.958 5.605 6.291 8 10 6.543 3.542 10.876 8.876 13 16-1.804 7.401-6.471 10.568-14 9.5a6.977 6.977 0 0 1-3.5-2.5c.456 6.285.956 12.618 1.5 19a21.127 21.127 0 0 1-9-1 45.847 45.847 0 0 0 1.5-17c-8.357 3.406-13.857.739-16.5-8a29.201 29.201 0 0 1 2.5-7l13-12 3.5-7z"/><path style="opacity:1" fill="#e5a41c" d="m136.5 84.5-2 3c.536-3.165-.297-5.831-2.5-8 1.83 9.173-1.67 12.34-10.5 9.5-4.077-3.138-4.91-6.972-2.5-11.5a118.117 118.117 0 0 0 16.5-17 79.796 79.796 0 0 0 16.5 17c2.696 7.27.196 11.604-7.5 13-1.981.063-3.648-.604-5-2-1.041-3.011-1.208-6.011-.5-9-1.883 1.153-2.716 2.82-2.5 5z"/><path style="opacity:1" fill="#8b6722" d="M136.5 84.5v8l-2-4v-1l2-3z"/><path style="opacity:1" fill="#e0a01d" d="m134.5 88.5 2 4c.146 4.02.479 8.019 1 12-.683 1.676-2.017 2.343-4 2v-3c.553-4.982.887-9.982 1-15z"/><path style="opacity:1" fill="#1b2113" d="M87.5 82.5a185.516 185.516 0 0 1-10.5 13c-.816 1.323-1.983 1.99-3.5 2a74.61 74.61 0 0 1 14-15zM73.5 97.5a154.892 154.892 0 0 1-9.5 12c-1.129 1.641-2.629 2.641-4.5 3a74.59 74.59 0 0 1 14-15z"/><path style="opacity:1" fill="#765821" d="M133.5 103.5v3c1.983.343 3.317-.324 4-2 .904.709 1.237 1.709 1 3h-6c-.268-1.599.066-2.932 1-4z"/><path style="opacity:1" fill="#13130b" d="M100.5 91.5c2.36 2.213 4.194 4.88 5.5 8a110.18 110.18 0 0 1 13 12c3.562 11.436-.604 16.602-12.5 15.5a9.454 9.454 0 0 1-2.5-1.5c.411 6.3.911 12.633 1.5 19-2.948.277-5.78-.056-8.5-1a83.34 83.34 0 0 0 1-18c-8.608 4.399-14.108 1.899-16.5-7.5.39-3.177 1.557-6.01 3.5-8.5l10-8a73.65 73.65 0 0 0 5.5-10z"/><path style="opacity:1" fill="#e2a21d" d="M100.5 95.5a89.843 89.843 0 0 1 7 8.5c6.17 2.834 10.17 7.501 12 14-2.743 7.97-7.576 9.803-14.5 5.5-1.829-2.393-1.663-4.727.5-7-.774-1.211-1.607-1.211-2.5 0a23.813 23.813 0 0 0-1.5 8l2 18h-5a92.107 92.107 0 0 0 1.5-25c-2.543-2.699-3.21-2.699-2 0 .525 7.849-2.975 10.349-10.5 7.5-4.162-3.478-4.996-7.644-2.5-12.5l13-12 2.5-5z"/><path style="opacity:1" fill="#181a0f" d="M59.5 112.5c-2.6 4.271-5.934 7.937-10 11 2.6-4.271 5.934-7.937 10-11z"/><path style="opacity:1" fill="#fdfdfd" d="M-.5 117.5c7.42 40.753 31.42 65.42 72 74h-72v-74zM165.5 119.5v72h-73c40.205-7.871 64.538-31.871 73-72z"/><path style="opacity:1" fill="#1b2113" d="M46.5 126.5a185.586 185.586 0 0 1-10.5 13c-.816 1.323-1.983 1.989-3.5 2a74.59 74.59 0 0 1 14-15zM32.5 141.5a154.892 154.892 0 0 1-9.5 12c-.816 1.323-1.983 1.989-3.5 2a64.738 64.738 0 0 1 13-14z"/><path style="opacity:1" fill="#14130a" d="M66.5 127.5c2.613 2.511 4.78 5.511 6.5 9l10 8c6.35 9.598 4.017 15.931-7 19-2.406-.203-4.406-1.203-6-3a145.64 145.64 0 0 0 1.5 19h-9a85.485 85.485 0 0 0 1.5-19c-8.674 4.877-14.174 2.377-16.5-7.5a18.097 18.097 0 0 1 2.5-6.5c3.7-4.035 7.7-7.702 12-11a47.363 47.363 0 0 0 4.5-8z"/><path style="opacity:1" fill="#e3a21c" d="M66.5 130.5c4.598 6.433 10.098 12.099 16.5 17 3.668 7.588 1.502 12.254-6.5 14-6.484-.967-8.15-4.3-5-10-.774-1.211-1.607-1.211-2.5 0a27.854 27.854 0 0 0-1.5 9l2 18h-5a224.132 224.132 0 0 0 2-18.5 21.974 21.974 0 0 0-1.5-8.5c-.893-1.211-1.726-1.211-2.5 0 3.178 5.644 1.512 8.977-5 10-8.31-2.385-10.143-7.385-5.5-15 6.115-4.276 10.948-9.609 14.5-16z"/></svg>
